www/assets/icons/push_pin.svg

<svg xmlns="http://www.w3.org/2000/svg" width="24" height="24" viewBox="0 0 24 24" fill='currentColor'><path fill-rule="evenodd" d="M16 9V4h1c.55 0 1-.45 1-1s-.45-1-1-1H7c-.55 0-1 .45-1 1s.45 1 1 1h1v5c0 1.66-1.34 3-3 3v2h5.97v7l1 1 1-1v-7H19v-2c-1.66 0-3-1.34-3-3" clip-rule="evenodd"/></svg>

<svg width="24" height="24" viewBox="0 0 24 24" xmlns="http://www.w3.org/2000/svg" fill='currentColor'><path fill-rule="evenodd" clip-rule="evenodd" d="M16 9V4H17C17.55 4 18 3.55 18 3C18 2.45 17.55 2 17 2H7C6.45 2 6 2.45 6 3C6 3.55 6.45 4 7 4H8V9C8 10.66 6.66 12 5 12V14H10.97V21L11.97 22L12.97 21V14H19V12C17.34 12 16 10.66 16 9Z"/></svg>
